public/images/icon-cabin--forest.svg

<svg width="40" height="42" viewBox="0 0 40 42" fill="none" xmlns="http://www.w3.org/2000/svg"><path d="m20 0 10 7.5V3.75h7.5v9.375L40 15v3.75H0V15L20 0Zm16.25 36.25v5H3.75v-5h32.5Zm-32.5-7.5h12.5v5H3.75v-5Zm12.5-7.5v5H3.75v-5h12.5Zm7.5 0h12.5v5h-12.5v-5Zm12.5 7.5v5h-12.5v-5h12.5Z" fill="#375519"/></svg>

<svg width="40" height="42" viewBox="0 0 40 42" fill="none" xmlns="http://www.w3.org/2000/svg">
<path d="M20 0L30 7.5V3.75H37.5V13.125L40 15V18.75H0V15L20 0ZM36.25 36.25V41.25H3.75V36.25H36.25ZM3.75 28.75H16.25V33.75H3.75V28.75ZM16.25 21.25V26.25H3.75V21.25H16.25ZM23.75 21.25H36.25V26.25H23.75V21.25ZM36.25 28.75V33.75H23.75V28.75H36.25Z" fill="#375519"/>
</svg>
